X: 6438
T: Castlebay Scrap
R: reel
M: 4/4
K: Ddorian
DC|A,D D/D/D EDEG|Ad d/d/d cAGd|cAGF EDCE|G,A,CD EDCE|
A,D D/D/D EDEG|Ad d/d/d cAGd|cAGF EDCE|1 G,CEC D2:|2 G,CEC D3||
c|dAA/A/A dAdf|Afge dfed|cAAc GGcA|AcGc edce|
dA A/A/A dAdf|Afge dfed|cAGF EDCE|1 G,CEC D3:|2 G,CEC D4||
f2 ef dcAd|cAAc GGcA|AcGG cAAc|GAcd e/f/g ce|
f2 ef dcAc|fdec dfed|cAGF EDCE|G,CEC D4:|

